X: 50
T:Miss McLeod's
M:4/4
L:1/8
R:Reel
N:http://www.lesession.co.uk
Z:Steve Mansfield 1998-2001
K:G
BA |: G2 g2 edeg | B2 BA BcBA | G2 gf edeg | A2 AG AcBA | 
G2 g2 edeg | B2 BA B3 d | efed Bdef | gedB AcBA :: 
G2 BG dGBG | B2 BA BcBA | G2 BG dGBG | A2 AG AcBA | 
G2 BG dGBG | B2 BA B3 d | efed Bdef | gedB AcBA :|
<end>
<start>
